assets/sonr-icons/fingerprint.svg

<svg xmlns="http://www.w3.org/2000/svg" width="24" height="24" fill="none" viewBox="0 0 24 24"><path fill="#000" d="M12.001 1.44006C8.45014 1.44006 5.26787 3.00669 3.0954 5.47477C2.74508 5.87275 2.78373 6.47935 3.1817 6.82967C3.57968 7.17998 4.18629 7.14134 4.5366 6.74336C6.36213 4.66943 9.02786 3.36006 12.001 3.36006C14.974 3.36006 17.6388 4.66936 19.4644 6.74336C19.8147 7.14134 20.4213 7.17998 20.8193 6.82967C21.2173 6.47935 21.2559 5.87275 20.9056 5.47477C18.7332 3.00677 15.552 1.44006 12.001 1.44006Z"/><path fill="#000" d="M2.24802 14.13C2.24802 8.74114 6.61454 4.37305 12.002 4.37305C17.3895 4.37305 21.756 8.74114 21.756 14.13C21.756 16.2788 20.0146 18.022 17.865 18.022C15.716 18.022 13.973 16.2805 13.973 14.13C13.973 13.0396 13.0902 12.157 12.002 12.157C10.9134 12.157 10.03 13.04 10.03 14.13C10.03 16.937 11.5053 19.4004 13.7269 20.7854C14.1768 21.0659 14.3142 21.658 14.0337 22.1079C13.7532 22.5579 13.161 22.6952 12.7111 22.4147C9.95072 20.6937 8.11002 17.6271 8.11002 14.13C8.11002 11.9801 9.85261 10.237 12.002 10.237C14.1518 10.237 15.893 11.9805 15.893 14.13C15.893 15.2196 16.776 16.102 17.865 16.102C18.9534 16.102 19.836 15.2193 19.836 14.13C19.836 9.80096 16.3285 6.29305 12.002 6.29305C7.67549 6.29305 4.16802 9.80096 4.16802 14.13C4.16802 15.1413 4.28098 16.1273 4.4897 17.0782C4.60336 17.5961 4.27569 18.1081 3.75783 18.2217C3.23996 18.3354 2.728 18.0077 2.61434 17.4899C2.37706 16.4088 2.24802 15.2848 2.24802 14.13Z"/><path fill="#000" d="M7.097 14.1301C7.097 11.4208 9.29262 9.22505 11.999 9.22505C14.7054 9.22505 16.901 11.4208 16.901 14.1301C16.901 14.6602 17.3308 15.0901 17.861 15.0901C18.3912 15.0901 18.821 14.6602 18.821 14.1301C18.821 10.3613 15.7666 7.30505 11.999 7.30505C8.23138 7.30505 5.177 10.3613 5.177 14.1301C5.177 16.8352 6.02678 19.3433 7.46977 21.4029C7.774 21.8371 8.37264 21.9425 8.80686 21.6383C9.24108 21.3341 9.34646 20.7354 9.04223 20.3012C7.81723 18.5528 7.097 16.4269 7.097 14.1301Z"/><path fill="#000" d="M12.001 13.17C12.5312 13.17 12.961 13.5999 12.961 14.13C12.961 16.8393 15.1566 19.035 17.863 19.035C17.9009 19.035 17.9282 19.0335 17.9689 19.0307C17.9689 19.0307 17.9689 19.0307 17.9689 19.0307C17.9747 19.0303 17.9808 19.0298 17.9872 19.0294C18.0205 19.0271 18.0631 19.0241 18.1248 19.0206C18.6541 18.9906 19.1075 19.3954 19.1375 19.9248C19.1674 20.4541 18.7626 20.9075 18.2333 20.9375C18.2218 20.9382 18.2053 20.9393 18.1851 20.9407C18.1078 20.946 17.9759 20.955 17.863 20.955C14.0943 20.955 11.041 17.8987 11.041 14.13C11.041 13.5999 11.4708 13.17 12.001 13.17Z"/></svg>

<svg xmlns="http://www.w3.org/2000/svg" width="24" height="24" fill="none"><path fill="currentColor" d="M12.001 1.44c-3.55 0-6.733 1.567-8.906 4.035a.96.96 0 1 0 1.442 1.268A9.92 9.92 0 0 1 12 3.36a9.91 9.91 0 0 1 7.463 3.383.96.96 0 1 0 1.442-1.268A11.83 11.83 0 0 0 12 1.44"/><path fill="currentColor" d="M2.248 14.13c0-5.389 4.367-9.757 9.754-9.757 5.388 0 9.754 4.368 9.754 9.757a3.892 3.892 0 1 1-7.783 0 1.972 1.972 0 1 0-3.943 0 7.83 7.83 0 0 0 3.697 6.655.96.96 0 1 1-1.016 1.63A9.75 9.75 0 0 1 8.11 14.13a3.893 3.893 0 1 1 7.783 0 1.972 1.972 0 1 0 3.943 0 7.835 7.835 0 1 0-15.668 0c0 1.011.113 1.997.322 2.948a.96.96 0 0 1-1.876.412 15.7 15.7 0 0 1-.366-3.36"/><path fill="currentColor" d="M7.097 14.13a4.904 4.904 0 0 1 4.902-4.905 4.904 4.904 0 0 1 4.902 4.905.96.96 0 0 0 1.92 0 6.824 6.824 0 0 0-6.822-6.825 6.824 6.824 0 0 0-6.822 6.825c0 2.705.85 5.213 2.293 7.273A.96.96 0 0 0 9.042 20.3a10.7 10.7 0 0 1-1.945-6.17"/><path fill="currentColor" d="M12.001 13.17c.53 0 .96.43.96.96a4.904 4.904 0 0 0 4.902 4.905c.038 0 .065-.002.106-.004l.018-.002.138-.008a.96.96 0 1 1 .06 1.92c-.077.005-.21.014-.322.014a6.823 6.823 0 0 1-6.822-6.825c0-.53.43-.96.96-.96"/></svg>
